app/assets/images/more_info.svg

<svg height="11" viewBox="0 0 11 11" width="11" xmlns="http://www.w3.org/2000/svg"><path d="m10.65625 10.3125h-2.40625v-.34375h-.34375v.34375h-3.4375v-.34375h-.34375v.34375h-2.40625v-.34375h-.34375v.34375h-.6875v-3.09375h.34375v-.34375h-.34375v-2.40625h.34375v-.34375h-.34375v-2.40625h.34375v-.34375h-.34375v-1.375h-.6875v11h11v-1.03125h-.34375zm-5.9296875-6.1015625-.171875.171875v2.70829883l.171875-.171875zm-.34375.34375-.171875.171875v2.70829883l.171875-.171875zm-.34375 3.05204883v-2.83720508l-.171875-.0859375v2.86100977l.15599805.07800976zm1.71875-4.42704883-.171875.171875v2.70829883l.171875-.171875zm-.6875.6875-.171875.171875v2.70829883l.171875-.171875zm-1.375.73046875-.171875-.0859375v2.86100977l.171875.0859375zm1.71875-1.07421875-.171875.171875v2.70829883l.171875-.171875zm-2.75.55859375-.171875-.0859375v2.86100977l.171875.0859375zm-.6875-.34375-.171875-.0859375v2.86100977l.171875.0859375zm1.375.6875-.171875-.0859375v2.86100977l.171875.0859375zm-1.03125-.515625-.171875-.0859375v2.86100977l.171875.0859375zm-.6875-.34375-.171875-.0859375v2.86100977l.171875.0859375zm4.46875-.73046875-.171875.171875v2.70829883l.171875-.171875zm-3.09375 1.41796875-.171875-.0859375v2.86100977l.171875.0859375zm5.84375-.73046875-.171875.171875v3.6680918l.171875-.2578125zm.34375-.34375-.171875.171875v3.4962168l.171875-.2578125zm.34375-.34375-.171875.171875v3.3243418l.171875-.2578125zm.6875-.6875-.171875.171875v2.9805918l.171875-.2578125zm-.34375.34375-.171875.171875v3.1524668l.171875-.2578125zm1.03125-1.03125-.171875.171875v2.6368418l.171875-.2578125zm-.34375.34375-.171875.171875v2.8087168l.171875-.2578125zm-3.09375 1.8046875-.171875-.11457617v3.32292383l.171875.22915234zm-.34375-.22917383-.171875-.11457617v3.09375l.171875.22917383zm-.6875-.45832617-.171875-.11457617v2.63540234l.171875.22917383zm.34375.22917383-.171875-.11459766v2.86459766l.171875.22917383zm1.03125.6875-.171875-.11459766v3.55209766l.171875.22917383zm.6875.02863867-.171875.171875v3.83994531l.171875-.25779101zm-.34375.20051367-.171875-.11457617v3.78127148l.171875.22915235zm.0859375 4.86979883-2.0625-2.75-2.0625 2.0625-2.75-1.375v2.75h9.625v-4.8125z" fill="#4a4a4a" fill-rule="evenodd" transform=""/></svg>

<?xml version="1.0" encoding="UTF-8" standalone="no"?>
<svg width="11px" height="11px" viewBox="0 0 11 11" version="1.1" xmlns="http://www.w3.org/2000/svg" xmlns:xlink="http://www.w3.org/1999/xlink" xmlns:sketch="http://www.bohemiancoding.com/sketch/ns">
    <!-- Generator: Sketch 3.4.1 (15681) - http://www.bohemiancoding.com/sketch -->
    <title>chart</title>
    <desc>Created with Sketch.</desc>
    <defs></defs>
    <g id="Slides" stroke="none" stroke-width="1" fill="none" fill-rule="evenodd" sketch:type="MSPage">
        <g id="Signs-::-Edit" sketch:type="MSArtboardGroup" transform="translate(-952.000000, -176.000000)" fill="#4A4A4A">
            <g id="Mini-Slide" sketch:type="MSLayerGroup" transform="translate(771.000000, 149.000000)">
                <g id="chart" transform="translate(181.000000, 27.000000)" sketch:type="MSShapeGroup">
                    <g id="Group">
                        <path d="M10.65625,10.3125 L8.25,10.3125 L8.25,9.96875 L7.90625,9.96875 L7.90625,10.3125 L4.46875,10.3125 L4.46875,9.96875 L4.125,9.96875 L4.125,10.3125 L1.71875,10.3125 L1.71875,9.96875 L1.375,9.96875 L1.375,10.3125 L0.6875,10.3125 L0.6875,7.21875 L1.03125,7.21875 L1.03125,6.875 L0.6875,6.875 L0.6875,4.46875 L1.03125,4.46875 L1.03125,4.125 L0.6875,4.125 L0.6875,1.71875 L1.03125,1.71875 L1.03125,1.375 L0.6875,1.375 L0.6875,0 L0,0 L0,11 L11,11 L11,9.96875 L10.65625,9.96875 L10.65625,10.3125 Z M4.7265625,4.2109375 L4.5546875,4.3828125 L4.5546875,7.09111133 L4.7265625,6.91923633 L4.7265625,4.2109375 Z M4.3828125,4.5546875 L4.2109375,4.7265625 L4.2109375,7.43486133 L4.3828125,7.26298633 L4.3828125,4.5546875 Z M4.0390625,7.60673633 L4.0390625,4.76953125 L3.8671875,4.68359375 L3.8671875,7.54460352 L4.02318555,7.62261328 L4.0390625,7.60673633 Z M5.7578125,3.1796875 L5.5859375,3.3515625 L5.5859375,6.05986133 L5.7578125,5.88798633 L5.7578125,3.1796875 Z M5.0703125,3.8671875 L4.8984375,4.0390625 L4.8984375,6.74736133 L5.0703125,6.57548633 L5.0703125,3.8671875 Z M3.6953125,4.59765625 L3.5234375,4.51171875 L3.5234375,7.37272852 L3.6953125,7.45866602 L3.6953125,4.59765625 Z M5.4140625,3.5234375 L5.2421875,3.6953125 L5.2421875,6.40361133 L5.4140625,6.23173633 L5.4140625,3.5234375 Z M2.6640625,4.08203125 L2.4921875,3.99609375 L2.4921875,6.85710352 L2.6640625,6.94304102 L2.6640625,4.08203125 Z M1.9765625,3.73828125 L1.8046875,3.65234375 L1.8046875,6.51335352 L1.9765625,6.59929102 L1.9765625,3.73828125 Z M3.3515625,4.42578125 L3.1796875,4.33984375 L3.1796875,7.20085352 L3.3515625,7.28679102 L3.3515625,4.42578125 Z M2.3203125,3.91015625 L2.1484375,3.82421875 L2.1484375,6.68522852 L2.3203125,6.77116602 L2.3203125,3.91015625 Z M1.6328125,3.56640625 L1.4609375,3.48046875 L1.4609375,6.34147852 L1.6328125,6.42741602 L1.6328125,3.56640625 Z M6.1015625,2.8359375 L5.9296875,3.0078125 L5.9296875,5.71611133 L6.1015625,5.54423633 L6.1015625,2.8359375 Z M3.0078125,4.25390625 L2.8359375,4.16796875 L2.8359375,7.02897852 L3.0078125,7.11491602 L3.0078125,4.25390625 Z M8.8515625,3.5234375 L8.6796875,3.6953125 L8.6796875,7.3634043 L8.8515625,7.1055918 L8.8515625,3.5234375 Z M9.1953125,3.1796875 L9.0234375,3.3515625 L9.0234375,6.8477793 L9.1953125,6.5899668 L9.1953125,3.1796875 Z M9.5390625,2.8359375 L9.3671875,3.0078125 L9.3671875,6.3321543 L9.5390625,6.0743418 L9.5390625,2.8359375 Z M10.2265625,2.1484375 L10.0546875,2.3203125 L10.0546875,5.3009043 L10.2265625,5.0430918 L10.2265625,2.1484375 Z M9.8828125,2.4921875 L9.7109375,2.6640625 L9.7109375,5.8165293 L9.8828125,5.5587168 L9.8828125,2.4921875 Z M10.9140625,1.4609375 L10.7421875,1.6328125 L10.7421875,4.2696543 L10.9140625,4.0118418 L10.9140625,1.4609375 Z M10.5703125,1.8046875 L10.3984375,1.9765625 L10.3984375,4.7852793 L10.5703125,4.5274668 L10.5703125,1.8046875 Z M7.4765625,3.609375 L7.3046875,3.49479883 L7.3046875,6.81772266 L7.4765625,7.046875 L7.4765625,3.609375 Z M7.1328125,3.38020117 L6.9609375,3.265625 L6.9609375,6.359375 L7.1328125,6.58854883 L7.1328125,3.38020117 Z M6.4453125,2.921875 L6.2734375,2.80729883 L6.2734375,5.44270117 L6.4453125,5.671875 L6.4453125,2.921875 Z M6.7890625,3.15104883 L6.6171875,3.03645117 L6.6171875,5.90104883 L6.7890625,6.13022266 L6.7890625,3.15104883 Z M7.8203125,3.83854883 L7.6484375,3.72395117 L7.6484375,7.27604883 L7.8203125,7.50522266 L7.8203125,3.83854883 Z M8.5078125,3.8671875 L8.3359375,4.0390625 L8.3359375,7.87900781 L8.5078125,7.6212168 L8.5078125,3.8671875 Z M8.1640625,4.06770117 L7.9921875,3.953125 L7.9921875,7.73439648 L8.1640625,7.96354883 L8.1640625,4.06770117 Z M8.25,8.9375 L6.1875,6.1875 L4.125,8.25 L1.375,6.875 L1.375,9.625 L11,9.625 L11,4.8125 L8.25,8.9375 Z" id="Shape"></path>
                    </g>
                </g>
            </g>
        </g>
    </g>
</svg>
